X: 35553
T: Rusty Anvil, The
R: jig
M: 6/8
K: Dmajor
|d2 B|:AFA DFA|~G3 EFG|~A3 BAF|ABd AdB|
AFA DFA|GFG EFG|AdA BAF|GEC D3:|
|:d2d efg|fed cBA|d2d eag|fec d3|
dcd efg|fdB AFA|AGA BGE|EDC D3:|
|:AGA d2c|BAB dAF|~A3 BAG|GFG EFG|
AGA d2c|BAB dAF|AdA BAF|GEC D3:|

